!! 00000] TT[WS
!!!OTL: Xiang gege
!!!ARE: Asia, China, Shanxi Xingxian
!! Ethnic Group: Han
!! WII, 105 (2)
!!!SCT: J0554
!!!YEM: Copyright 1995, estate of Helmut Schaffrath.
**kern
*ICvox
*Ivox
*M2/4
*k[b-]
*F:
{4cc
4e
=1
8ff
8dd
4ff
=2
8dd
8cc
8a
8cc
=3
4.g
8a}
=4
{16g
16a
16g
16f
8d
8f
=5
2g}
=6
{8ff
4ff
8dd
=7
4cc
4c
=8
8g
4g
16f
16d
=9
2c}
==
!!!AGN: Xiaodiao. Qingge, Sichun
!!!ONB: ESAC (Essen Associative Code) Database: CHINA
!!!AMT: simple duple
!!!AIN: vox
!!!EED: Helmut Schaffrath
!!!EEV: 1.0
*-
